X:1
T:Martin Wynne's No. 2
R:reel
M:4/4
L:1/8
K:D
|:F2AF E2FE|DB,~B,2 DB,A,2|B,E~E2 FEDE|FABc dcBA|
|FBAF E2FE|DB,~B,2 DB,A,2|B,E~E2 FEDE|FBBA B3A:|
|:FBAF A2FA|(3Bcd eg fdde|~f2af egfe|dfed BAFE|
|FBAF A2FA|(3Bcd eg fdde|~f2af egfe|dBAF B3A:|